T: Erin Go Bráth
M: 4/4
L: 1/8
K: Dmaj
|: F>E |D[A,A] DE FD FG | AD FA d2 cB | AD FA BAGF | E[A,A] [Cc][Ee] AG FE |
D[A,A] DE FD FG | AD FA d2 cB | AD FA [A,2A2] [Cc][Ee] | [D2d2] [Dd]>[Dd] [D2d2] :|
|: fg |a2 f2 d2 F>G | AD FA d2 ef | g2 f2 e2 d2 | cA gf e2 fg |
a2 f2 d2 F>G | AD FA d2 cB | AD FA [A,2A2] [Cc][Ee] | [D2d2] [Dd]>[Dd] [D2d2] :|
